web/packages/design/src/ResourceIcon/assets/elastic.svg

<svg width="72" height="72" viewBox="0 0 72 72" fill="none" xmlns="http://www.w3.org/2000/svg">
<g clip-path="url(#clip0_6734_29892)">
<path d="M72 37.7208C72.0067 34.7992 71.1103 31.9469 69.4326 29.5548C67.7553 27.1627 65.3792 25.3477 62.6301 24.3586C62.8804 23.0835 63.0063 21.7871 63.0068 20.4877C63.0093 16.1864 61.6475 11.9953 59.1178 8.51666C56.5881 5.03806 53.0205 2.45123 48.9277 1.1281C44.8354 -0.195036 40.4285 -0.186317 36.3411 1.153C32.2537 2.49232 28.6963 5.09326 26.1803 8.58182C24.3241 7.14345 22.0498 6.34913 19.7017 6.31929C17.3536 6.28945 15.0597 7.02565 13.1676 8.41635C11.2754 9.80709 9.88804 11.7766 9.21558 14.0266C8.54316 16.2765 8.62229 18.6843 9.44101 20.8852C6.68543 21.8896 4.30355 23.7138 2.61569 26.1124C0.927856 28.511 0.0150461 31.3689 4.82473e-05 34.3018C-0.00759797 37.2335 0.893758 40.0955 2.58002 42.4936C4.26626 44.8919 6.6545 46.7085 9.4159 47.6932C9.17147 48.9679 9.04676 50.2623 9.04346 51.56C9.03935 55.8561 10.3998 60.0426 12.9285 63.5161C15.4572 66.989 19.0236 69.5694 23.1135 70.8851C27.2034 72.2004 31.6054 72.1833 35.6847 70.8353C39.7641 69.4878 43.31 66.8794 45.8113 63.3863C47.6623 64.8284 49.9325 65.6273 52.2785 65.6625C54.6246 65.6976 56.9178 64.9665 58.8106 63.5805C60.7039 62.1941 62.0932 60.2285 62.7678 57.9816C63.4428 55.7344 63.3667 53.3289 62.5506 51.129C65.3076 50.1263 67.6913 48.3025 69.3798 45.9038C71.0688 43.505 71.9815 40.6461 71.9958 37.7124" fill="white"/>
<path d="M28.3063 31.0333L44.0622 38.227L59.9645 24.2999C60.1934 23.1507 60.3073 21.9815 60.3035 20.8097C60.3027 17.0162 59.0878 13.3225 56.8364 10.2691C54.5854 7.21575 51.4162 4.96302 47.7921 3.84056C44.1685 2.71809 40.2808 2.78483 36.6978 4.031C33.1147 5.27717 30.0246 7.63733 27.8795 10.7662L25.2305 24.4673L28.3063 31.0333Z" fill="#FEC514"/>
<path d="M11.9977 47.7183C11.7654 48.8854 11.6491 50.0727 11.6504 51.2628C11.6505 55.0723 12.8716 58.7813 15.1346 61.8454C17.3976 64.91 20.5832 67.1681 24.224 68.2888C27.8647 69.4095 31.7689 69.3337 35.3634 68.0724C38.9579 66.8116 42.0536 64.4312 44.1958 61.2813L46.8197 47.6095L43.317 40.9138L27.5025 33.7075L11.9977 47.7183Z" fill="#00BFB3"/>
<path d="M11.9014 20.4542L22.6982 23.0028L25.0627 10.7245C23.5941 9.61096 21.8044 9.00307 19.9615 8.99186C18.1185 8.9806 16.3215 9.56669 14.8395 10.6623C13.3576 11.7578 12.2704 13.304 11.7407 15.0692C11.211 16.8344 11.2674 18.7237 11.9014 20.4542Z" fill="#F04E98"/>
<path d="M10.9646 23.0234C8.59562 23.8228 6.53467 25.3406 5.06839 27.3657C3.60209 29.3907 2.80334 31.8224 2.78321 34.3225C2.7815 36.7388 3.51528 39.0983 4.88698 41.0874C6.25864 43.0767 8.20329 44.6012 10.4624 45.4583L25.6115 31.7655L22.8286 25.8231L10.9646 23.0234Z" fill="#1BA9F5"/>
<path d="M46.9668 61.2812C48.4332 62.3889 50.2184 62.9932 52.056 63.0029C53.8935 63.0125 55.685 62.4279 57.1627 61.3356C58.6408 60.2434 59.7255 58.7021 60.2557 56.9424C60.7855 55.1831 60.7319 53.2991 60.103 51.5724L49.3145 49.0615L46.9668 61.2812Z" fill="#93C90E"/>
<path d="M49.159 46.2199L61.0355 48.9944C63.4058 48.1972 65.4681 46.6802 66.9349 44.6543C68.4017 42.6289 69.1993 40.1961 69.2169 37.6954C69.2148 35.2842 68.4795 32.9307 67.109 30.9471C65.738 28.9635 63.7967 27.4435 61.5419 26.5889L46.0078 40.1896L49.159 46.2199Z" fill="#0077CC"/>
</g>
<defs>
<clipPath id="clip0_6734_29892">
<rect width="72" height="72" fill="white"/>
</clipPath>
</defs>
</svg>

<svg xmlns="http://www.w3.org/2000/svg" width="72" height="72" fill="none" viewBox="0 0 72 72"><g clip-path="url(#clip0_6734_29892)"><path fill="#fff" d="M72 37.72a14.16 14.16 0 0 0-9.37-13.361c.25-1.276.376-2.572.377-3.871A20.334 20.334 0 0 0 26.18 8.582 10.8 10.8 0 0 0 9.441 20.885 14.36 14.36 0 0 0 0 34.302a14.18 14.18 0 0 0 9.416 13.391 21 21 0 0 0-.373 3.867 20.28 20.28 0 0 0 26.642 19.275 20.28 20.28 0 0 0 10.126-7.449 10.785 10.785 0 0 0 16.74-12.257 14.35 14.35 0 0 0 9.445-13.417"/><path fill="#fec514" d="m28.306 31.033 15.756 7.194L59.965 24.3a17.6 17.6 0 0 0 .338-3.49A17.767 17.767 0 0 0 27.88 10.766l-2.65 13.701z"/><path fill="#00bfb3" d="M11.998 47.718a18 18 0 0 0-.348 3.545A17.814 17.814 0 0 0 44.196 61.28l2.624-13.67-3.503-6.695-15.814-7.206z"/><path fill="#f04e98" d="m11.901 20.454 10.797 2.549 2.365-12.278a8.529 8.529 0 0 0-13.162 9.73"/><path fill="#1ba9f5" d="M10.965 23.023a12.03 12.03 0 0 0-8.182 11.3 11.9 11.9 0 0 0 7.68 11.135l15.149-13.692-2.783-5.943z"/><path fill="#93c90e" d="M46.967 61.281a8.518 8.518 0 0 0 13.289-4.339 8.5 8.5 0 0 0-.153-5.37l-10.788-2.51z"/><path fill="#07c" d="m49.159 46.22 11.877 2.774a12.01 12.01 0 0 0 8.18-11.299 11.89 11.89 0 0 0-7.674-11.106l-15.534 13.6z"/></g><defs><clipPath id="clip0_6734_29892"><path fill="#fff" d="M0 0h72v72H0z"/></clipPath></defs></svg>
